Numix-Circle/48x48/apps/gnome-schedule.svg

<?xml version="1.0" encoding="UTF-8" standalone="no"?>
<svg
   xmlns:dc="http://purl.org/dc/elements/1.1/"
   xmlns:cc="http://creativecommons.org/ns#"
   xmlns:rdf="http://www.w3.org/1999/02/22-rdf-syntax-ns#"
   xmlns:svg="http://www.w3.org/2000/svg"
   xmlns="http://www.w3.org/2000/svg"
   xmlns:xlink="http://www.w3.org/1999/xlink"
   xmlns:sodipodi="http://sodipodi.sourceforge.net/DTD/sodipodi-0.dtd"
   xmlns:inkscape="http://www.inkscape.org/namespaces/inkscape"
   width="48"
   viewBox="0 0 13.546667 13.546667"
   height="48"
   id="svg2"
   version="1.1"
   inkscape:version="0.91 r13725"
   sodipodi:docname="kapow.svg">
  <metadata
     id="metadata331">
    <rdf:RDF>
      <cc:Work
         rdf:about="">
        <dc:format>image/svg+xml</dc:format>
        <dc:type
           rdf:resource="http://purl.org/dc/dcmitype/StillImage" />
        <dc:title />
      </cc:Work>
    </rdf:RDF>
  </metadata>
  <sodipodi:namedview
     pagecolor="#ffffff"
     bordercolor="#666666"
     borderopacity="1"
     objecttolerance="10"
     gridtolerance="10"
     guidetolerance="10"
     inkscape:pageopacity="0"
     inkscape:pageshadow="2"
     inkscape:window-width="1920"
     inkscape:window-height="1052"
     id="namedview329"
     showgrid="true"
     inkscape:zoom="18.101934"
     inkscape:cx="14.445288"
     inkscape:cy="33.759967"
     inkscape:window-x="0"
     inkscape:window-y="28"
     inkscape:window-maximized="1"
     inkscape:current-layer="layer3"
     showguides="true"
     inkscape:guide-bbox="true">
    <inkscape:grid
       type="xygrid"
       id="grid3308" />
  </sodipodi:namedview>
  <defs
     id="defs4">
    <linearGradient
       id="linearGradient4019">
      <stop
         style="stop-color:#dddddd;stop-opacity:1;"
         offset="0"
         id="stop4021" />
      <stop
         style="stop-color:#e7e7e7;stop-opacity:1;"
         offset="1"
         id="stop4024" />
    </linearGradient>
    <linearGradient
       inkscape:collect="always"
       xlink:href="#linearGradient4019"
       id="linearGradient4147"
       x1="-27"
       y1="13"
       x2="-24"
       y2="13"
       gradientUnits="userSpaceOnUse" />
  </defs>
  <g
     inkscape:groupmode="layer"
     id="layer1"
     inkscape:label="Shadow"
     sodipodi:insensitive="true">
    <path
       style="opacity:0.05;fill:#000000;fill-opacity:1;stroke:none"
       d="M 25,2 C 12.297451,2 2,12.297451 2,25 2,31.367153 4.6007106,37.116628 8.78125,41.28125 12.865755,44.99361 18.29568,47.25 24.25,47.25 c 12.702549,0 23,-10.297451 23,-23 0,-5.95432 -2.25639,-11.384245 -5.96875,-15.46875 C 37.116628,4.6007105 31.367153,2 25,2 z M 41.28125,8.78125 C 45.135604,12.894061 47.5,18.418655 47.5,24.5 c 0,12.702549 -10.297451,23 -23,23 C 18.418655,47.5 12.894061,45.135604 8.78125,41.28125 12.940939,45.4251 18.664604,48 25,48 37.702549,48 48,37.702549 48,25 48,18.664604 45.4251,12.940939 41.28125,8.78125 z"
       transform="scale(0.28222223,0.28222223)"
       id="path3978"
       inkscape:connector-curvature="0" />
    <path
       style="opacity:0.1;fill:#000000;fill-opacity:1;stroke:none"
       d="M 41.28125,8.78125 C 44.99361,12.865755 47.25,18.29568 47.25,24.25 c 0,12.702549 -10.297451,23 -23,23 -5.95432,0 -11.384245,-2.25639 -15.46875,-5.96875 C 12.894061,45.135604 18.418655,47.5 24.5,47.5 c 12.702549,0 23,-10.297451 23,-23 0,-6.081345 -2.364396,-11.605939 -6.21875,-15.71875 z"
       transform="scale(0.28222223,0.28222223)"
       id="path3976"
       inkscape:connector-curvature="0" />
    <path
       transform="matrix(4.3274074,0,0,3.2455556,117.19278,-35.348334)"
       d="m -24,13 a 1.5,2 0 1 1 -3,0 1.5,2 0 1 1 3,0 z"
       sodipodi:ry="2"
       sodipodi:rx="1.5"
       sodipodi:cy="13"
       sodipodi:cx="-25.5"
       id="path3952"
       style="opacity:0.2;fill:#000000;fill-opacity:1;stroke:none"
       sodipodi:type="arc" />
  </g>
  <g
     inkscape:groupmode="layer"
     id="layer2"
     inkscape:label="Base">
    <path
       sodipodi:type="arc"
       style="fill:url(#linearGradient4147);fill-opacity:1.0;stroke:none"
       id="path3942"
       sodipodi:cx="-25.5"
       sodipodi:cy="13"
       sodipodi:rx="1.5"
       sodipodi:ry="2"
       d="m -24,13 a 1.5,2 0 1 1 -3,0 1.5,2 0 1 1 3,0 z"
       transform="matrix(0,-4.3274075,3.2455556,0,-35.429918,-103.60974)" />
    <path
       style="opacity:0.1;fill:#000000;fill-opacity:1;stroke:none"
       d="M 40.03125 7.53125 C 43.74361 11.615755 46 17.04568 46 23 C 46 35.702549 35.702549 46 23 46 C 17.04568 46 11.615755 43.74361 7.53125 40.03125 C 11.709416 44.322508 17.537578 47 24 47 C 36.702549 47 47 36.702549 47 24 C 47 17.537578 44.322508 11.709416 40.03125 7.53125 z "
       transform="scale(0.28222223,0.28222223)"
       id="path4027" />
  </g>
  <g
     inkscape:groupmode="layer"
     id="layer3"
     inkscape:label="Symbol">
    <path
       id="path4215"
       d="m 7.0555557,2.8222223 c -2.3380054,0 -4.2333334,1.895328 -4.2333334,4.2333334 0,2.3380055 1.895328,4.2333333 4.2333334,4.2333333 2.3380055,0 4.2333333,-1.8953278 4.2333333,-4.2333333 0,-2.3380054 -1.8953278,-4.2333334 -4.2333333,-4.2333334 z m 0,1.1288889 C 8.770093,3.9511112 10.16,5.3410184 10.16,7.0555557 10.16,8.770093 8.770093,10.16 7.0555557,10.16 5.3410184,10.16 3.9511112,8.770093 3.9511112,7.0555557 c 0,-1.7145373 1.3899072,-3.1044445 3.1044445,-3.1044445 z"
       style="fill:#000000;fill-opacity:1;stroke:none;opacity:0.1"
       inkscape:connector-curvature="0" />
    <path
       style="fill:#ee7923;fill-opacity:1;stroke:none"
       d="M 24 14 C 20.228227 14 16.953319 16.072915 15.25 19.15625 L 24 24 L 24 14 z "
       transform="scale(0.28222223,0.28222223)"
       id="path4199" />
    <path
       style="opacity:1;fill:#f2c046;fill-opacity:1;stroke:none"
       d="M 24 9 C 15.715729 9 9 15.715729 9 24 C 9 32.284271 15.715729 39 24 39 C 32.284271 39 39 32.284271 39 24 C 39 15.715729 32.284271 9 24 9 z M 24 13 C 30.075132 13 35 17.924868 35 24 C 35 30.075132 30.075132 35 24 35 C 17.924868 35 13 30.075132 13 24 C 13 17.924868 17.924868 13 24 13 z "
       transform="scale(0.28222223,0.28222223)"
       id="path3372" />
    <path
       style="fill:#333333;fill-opacity:1;stroke:none"
       d="m 24,22 10,2 -10,2 z"
       id="path4186"
       inkscape:connector-curvature="0"
       transform="scale(0.28222223,0.28222223)"
       sodipodi:nodetypes="cccc" />
    <path
       style="fill:#333333;fill-opacity:1;stroke:none"
       d="M 24.711384,22.120257 23.360771,25.927846 15,19 z"
       id="path4188"
       inkscape:connector-curvature="0"
       transform="scale(0.28222223,0.28222223)"
       sodipodi:nodetypes="cccc" />
    <path
       sodipodi:type="arc"
       style="fill:#333333;fill-opacity:1;stroke:none"
       id="path4184"
       sodipodi:cx="-27.5"
       sodipodi:cy="11"
       sodipodi:rx="1.5"
       sodipodi:ry="2"
       d="m -26,11 a 1.5,2 0 1 1 -3,0 1.5,2 0 1 1 3,0 z"
       transform="matrix(0.37629631,0,0,0.28222223,17.121482,3.668889)" />
  </g>
</svg>

<svg xmlns="http://www.w3.org/2000/svg" width="48" viewBox="0 0 13.546667 13.546667" height="48"><defs><linearGradient id="linearGradient4147" x1="-27" x2="-24" gradientUnits="userSpaceOnUse"><stop stop-color="#ddd" stop-opacity="1"/><stop offset="1" stop-color="#e7e7e7" stop-opacity="1"/></linearGradient></defs><g><path d="m 25 2 c -12.703 0 -23 10.297 -23 23 0 6.367 2.601 12.12 6.781 16.281 4.085 3.712 9.514 5.969 15.469 5.969 c 12.703 0 23 -10.297 23 -23 0 -5.954 -2.256 -11.384 -5.969 -15.469 c -4.165 -4.181 -9.914 -6.781 -16.281 -6.781 z m 16.281 6.781 c 3.854 4.113 6.219 9.637 6.219 15.719 c 0 12.703 -10.297 23 -23 23 c -6.081 0 -11.606 -2.364 -15.719 -6.219 4.16 4.144 9.883 6.719 16.219 6.719 12.703 0 23 -10.297 23 -23 0 -6.335 -2.575 -12.06 -6.719 -16.219 z" transform="scale(0.28222223,0.28222223)" opacity="0.05" fill="#000" stroke="none" fill-opacity="1"/><path d="m 41.28 8.781 c 3.712 4.085 5.969 9.514 5.969 15.469 c 0 12.703 -10.297 23 -23 23 -5.954 0 -11.384 -2.256 -15.469 -5.969 c 4.113 3.854 9.637 6.219 15.719 6.219 c 12.703 0 23 -10.297 23 -23 0 -6.081 -2.364 -11.606 -6.219 -15.719 z" transform="scale(0.28222223,0.28222223)" opacity="0.1" fill="#000" stroke="none" fill-opacity="1"/><path transform="matrix(4.3274074,0,0,3.2455556,117.19278,-35.348334)" d="m -24 13 a 1.5 2 0 1 1 -3 0 1.5 2 0 1 1 3 0 z" opacity="0.2" fill="#000" stroke="none" fill-opacity="1"/></g><g><path d="m -24 13 a 1.5 2 0 1 1 -3 0 1.5 2 0 1 1 3 0 z" transform="matrix(0,-4.3274075,3.2455556,0,-35.429918,-103.60974)" fill="url(#linearGradient4147)" stroke="none" fill-opacity="1"/><path d="m 40.03 7.531 c 3.712 4.085 5.969 9.514 5.969 15.469 c 0 12.703 -10.297 23 -23 23 c -5.954 0 -11.384 -2.256 -15.469 -5.969 c 4.178 4.291 10.01 6.969 16.469 6.969 c 12.703 0 23 -10.297 23 -23 c 0 -6.462 -2.677 -12.291 -6.969 -16.469 z" transform="scale(0.28222223,0.28222223)" opacity="0.1" fill="#000" stroke="none" fill-opacity="1"/></g><g><path d="m 25 10 c -8.284 0 -15 6.716 -15 15 c 0 8.284 6.716 15 15 15 c 8.284 0 15 -6.716 15 -15 c 0 -8.284 -6.716 -15 -15 -15 z m 0 4 c 6.075 0 11 4.925 11 11 c 0 6.075 -4.925 11 -11 11 c -6.075 0 -11 -4.925 -11 -11 c 0 -6.075 4.925 -11 11 -11 z m 0 1 c -3.745 0 -6.996 2.047 -8.709 5.094 l -0.291 -0.094 l 7.297 6.04 a 2 2 0 0 0 0.99 0.82 l 0.074 0.063 l 0.012 -0.031 a 2 2 0 0 0 0.627 0.104 a 2 2 0 0 0 0.758 -0.152 l 9.242 -1.848 l -9.234 -1.848 a 2 2 0 0 0 -0.059 -0.021 l 0.004 -0.001 l -0.711 -0.229 l 0 -7.893 z" transform="scale(0.28222223,0.28222223)" opacity="0.1" fill="#000" stroke="none" fill-opacity="1"/><path d="m 24 14 c -3.772 0 -7.05 2.073 -8.75 5.156 l 8.75 4.844 l 0 -10 z" transform="scale(0.28222223,0.28222223)" fill="#ee7923" stroke="none" fill-opacity="1"/><path d="m 24 9 c -8.284 0 -15 6.716 -15 15 c 0 8.284 6.716 15 15 15 c 8.284 0 15 -6.716 15 -15 c 0 -8.284 -6.716 -15 -15 -15 z m 0 4 c 6.075 0 11 4.925 11 11 c 0 6.075 -4.925 11 -11 11 c -6.075 0 -11 -4.925 -11 -11 c 0 -6.075 4.925 -11 11 -11 z" transform="scale(0.28222223,0.28222223)" opacity="1" fill="#f2c046" stroke="none" fill-opacity="1"/><path d="m 24 22 10 2 -10 2 z" transform="scale(0.28222223,0.28222223)" fill="#333" stroke="none" fill-opacity="1"/><path d="m 24.711 22.12 -1.351 3.808 -8.361 -6.928 z" transform="scale(0.28222223,0.28222223)" fill="#333" stroke="none" fill-opacity="1"/><path d="m -26 11 a 1.5 2 0 1 1 -3 0 1.5 2 0 1 1 3 0 z" transform="matrix(0.37629631,0,0,0.28222223,17.121482,3.668889)" fill="#333" stroke="none" fill-opacity="1"/></g></svg>
